!!!COM: Franz Schubert
!!!CNT: Deutsch
!!!TXO: Deutsch
!!!OTL: "Ratlose Liebe"
!!!LYR: Johann Wolfgang von Goethe
!!!OPS: Op. 5
!!!ONM: No. 1
!!!ENC: Ben Fuhrman
!!!YOR: Schubert Lieder - Dietrich Fischer-Dieskau, and Elmar Budde, eds.
!!!YOR: New York: C. F. Peters, Vol. 2
!!!ODT: 1815/
!!NB: Only vocal melody encoded.
!!NB: First instance of melodic material only encoded.
!!NB: Original Key: E Major
**kern
*clef G2
*k[]
*M2/4
!!created: 08/03/06 3:15
!!proofed and posted: 08/03/06 3:15
!!edit time: 25 minutes
=6
4r
8r
{8g
=7
4.g
8g
=8
4a-
8g
8g
=9
4.g
8cc
=10
4cc
8b}
{8a
=11
4.a
8a
=12
4b-
8a
8a
=13
4.a
8dd
=14
4dd
4cc#}
=15
{4.cc
8cc
=16
2cc
=17
4.cc
8cc
=18
2cc}
=19
{2ff
=20
2cc#
=21
[2dd
=22
4dd]
4f#
=23
2g}
!! rest to measure 25
=25
{4dd
8dd
8cc
=26
8cc
8b
4b
=27
4dd
8dd
8cc
=28
8cc
8b
4b}
=29
{4cc
[4cc
=30
4cc]
8dd
8ee-
=31
4ee-
8b-
8g
=32
4cc
8b-
8a-
=33
*k[b-e-a-]
qa-
4g
4g}
!! rest to measure 35
=35
{4ee
8b
8b
=36
4cc
8b
8b
=37
4f
8g
8a
=38
4a
4g}
!! rest to measure 40
=40
{4ff
8cc
8cc
=41
4dd-
4cc
=42
4g
8a
8b
=43
4b
4a}
!! rest to measure 45
=45
{4cc
8bn
8cc
=46
2ee
=47
4cc
8bn
8cc
=48
2ee}
=49
{[2ee
=50
4ee]
4ee
=51
[2een
=52
4een]
8g#
8g#
=53
*k[]
qb
4a
4a}
!! rest to measure 57
=57
{4ee
8b
8b
=58
4cc
4g
=59
4a
8.cc
16b
=60
2a}
=61
{4a
8b
8cc
=62
4dd
4a
=63
4b
8cc
8a
=64
4g}
4r
=65
{4a
8.dd
16dd
=66
(4dd
4g)
=67
8a
8dd
8dd
8dd
=68
(4dd
4g)}
=69
{4ee
8.b
16b
=70
4cc
4g
=71
4a
8.cc
16b
=72
2a}
=73
{4a
8b
8cc
=74
4dd
4dd#
=75
4ee
8dd
8b
=76
4cc}
8r
{8cc
=77
[2cc
=78
2cc_
=79
2cc_
=80
(2cc]
=81
8ee
8cc)
8g
8e
=82
4a
8g
8B
=83
4c}
4r
==
*-
